X:1
T:Title
%%score { ( 1 4 ) | ( 2 3 ) }
L:1/8
Q:1/4=135
M:6/4
K:G
V:1 treble nm="Grand Piano"
V:4 treble 
V:2 treble 
V:3 treble 
V:1
 B2 B2 B2 B4 [DG]2 | [DEG]6 .[G,CE]6 | [G,B,D]6 [A,DF]4 [B,DG]2 | [DFA]12 | %4
w: W.~H.~Doane * * * *||||
 [DGB]2 [DGB]2 [DGB]2 [DGB]4 [D=FG]2 | [CEG]6 .E6 | D6 B4 A2 | [B,DG]12 | A6 z2 G,2 A2 | B4 c2 d6 | %10
w: ||||||
 [Ge]6 [Gd]4 [DGB]2 | [^CGB]4 [CGA]2 .[DFA]6 | [DGB]2 [DGB]2 [DGB]2 [DGB]4 [D=FG]2 | [CEG]6 .E6 | %14
w: ||||
 D6 B4 A2 | [B,DG]12 |] %16
w: ||
V:2
 [G,DG]2 [G,DG]2 [G,DG]2 [G,DG]4[K:bass] B,,2 | C,6 .C,6 | D,6 D,4 D,2 | D,12 | %4
 G,2 G,2 G,2 G,4 B,,2 | z6 .[G,C]6 | [D,G,B,]6 [D,G,D]4 [D,CD]2 | G,,12 | %8
 [D,F,D]6 [F,A,]2 E,2 [D,F,D]2 | [G,D]4 [G,A,D]2 [G,B,G]6 | [C,C]6 [G,B,]4 G,2 | E,4 A,2 .D,6 | %12
 G,2 G,2 G,2 G,4 B,,2 | z6 .[G,C]6 | [D,G,B,]6 [D,G,D]4 [D,CD]2 | G,,12 |] %16
V:3
 x10[K:bass] x2 | x12 | x12 | x12 | x12 | C,12 | x12 | x12 | x12 | x12 | x12 | x12 | x12 | C,12 | %14
 x12 | x12 |] %16
V:4
 x12 | x12 | x12 | x12 | x12 | x12 | x12 | x12 | z6 .D6 | x12 | x12 | x12 | x12 | x12 | x12 | %15
 x12 |] %16

